resources/svg/regular/user-circle.svg

<svg xmlns="http://www.w3.org/2000/svg" fill="currentColor" stroke="none" viewBox="0 0 24 24"><path fill="none" d="M12,8c-1.178,0-2,0.822-2,2s0.822,2,2,2s2-0.822,2-2S13.178,8,12,8z"/><path fill="none" d="M12,4c-4.337,0-8,3.663-8,8c0,2.176,0.923,4.182,2.39,5.641c0.757-1.8,2.538-3.068,4.61-3.068h2 c2.072,0,3.854,1.269,4.61,3.068C19.077,16.182,20,14.176,20,12C20,7.663,16.337,4,12,4z M12,14c-2.28,0-4-1.72-4-4s1.72-4,4-4 s4,1.72,4,4S14.28,14,12,14z"/><path fill="none" d="M13,16.572h-2c-1.432,0-2.629,1.01-2.926,2.354C9.242,19.604,10.584,20,12,20s2.758-0.396,3.926-1.073 C15.629,17.582,14.432,16.572,13,16.572z"/><path d="M12,2C6.579,2,2,6.579,2,12c0,3.189,1.592,6.078,4,7.924V20h0.102C7.77,21.245,9.813,22,12,22s4.23-0.755,5.898-2H18 v-0.076c2.408-1.846,4-4.734,4-7.924C22,6.579,17.421,2,12,2z M8.074,18.927c0.297-1.345,1.494-2.354,2.926-2.354h2 c1.432,0,2.629,1.01,2.926,2.354C14.758,19.604,13.416,20,12,20S9.242,19.604,8.074,18.927z M17.61,17.641 c-0.757-1.8-2.538-3.068-4.61-3.068h-2c-2.072,0-3.854,1.269-4.61,3.068C4.923,16.182,4,14.176,4,12c0-4.337,3.663-8,8-8 s8,3.663,8,8C20,14.176,19.077,16.182,17.61,17.641z"/><path d="M12,6c-2.28,0-4,1.72-4,4s1.72,4,4,4s4-1.72,4-4S14.28,6,12,6z M12,12c-1.178,0-2-0.822-2-2s0.822-2,2-2s2,0.822,2,2 S13.178,12,12,12z"/></svg>

<svg xmlns="http://www.w3.org/2000/svg" fill="currentColor" stroke="none" viewBox="0 0 24 24"><path d="M12 2A10.13 10.13 0 0 0 2 12a10 10 0 0 0 4 7.92V20h.1a9.7 9.7 0 0 0 11.8 0h.1v-.08A10 10 0 0 0 22 12 10.13 10.13 0 0 0 12 2zM8.07 18.93A3 3 0 0 1 11 16.57h2a3 3 0 0 1 2.93 2.36 7.75 7.75 0 0 1-7.86 0zm9.54-1.29A5 5 0 0 0 13 14.57h-2a5 5 0 0 0-4.61 3.07A8 8 0 0 1 4 12a8.1 8.1 0 0 1 8-8 8.1 8.1 0 0 1 8 8 8 8 0 0 1-2.39 5.64z"/><path d="M12 6a3.91 3.91 0 0 0-4 4 3.91 3.91 0 0 0 4 4 3.91 3.91 0 0 0 4-4 3.91 3.91 0 0 0-4-4zm0 6a1.91 1.91 0 0 1-2-2 1.91 1.91 0 0 1 2-2 1.91 1.91 0 0 1 2 2 1.91 1.91 0 0 1-2 2z"/></svg>
